X:1
T:Sancta Maria succurre
T:Giovanni Girolamo Kapsperger
T:Source : Libro primo di mottetti passeggiati a una voce---Roma---1612. Racolta del Sig.Francesco de Nobile Editor : André Vierendeels (22/10/15).
T:Notes : Original clefs : C1, F4 Editorial accidentals above the staff Note values have been halved in 3-beat measure
T:Sancta Maria succurre
C:Giovanni Girolamo Kapsperger
%%score 1 2
L:1/8
Q:1/4=80
M:4/4
K:F
V:1 treble nm="Soprano" snm="S"
V:2 bass nm="BC" snm="BC"
V:1
 A4 A4 | D/E/F/G/ A/B/c/A/ B4 | A4 de fd | _ed cB A3 G | G8 | _e4 =B4 | c6 G2- | G2 CD EFGA | %8
w: San- cta|Ma- * * * * * * * ri-|a, suc- * * *|cur- * re _ mi- se-|ris,|iu- va|pus- si-|* la- * * * * *|
 B6 ^F2 | ^F2 B4 AG | c/d/ _e3 dc=BA | =B2 c4 B2 | c4 _e4- | e2 B2 c3 d/_e/ | %14
w: * ni-|mes, re- fo- ve|fle- * * * * * *|* * bi-|les, o-|* ra pro po- *|
 f/_e/d/c/ B/F/G/A/ B/c/B/c/ d/e/d/e/ | f/F/G/A/ B/A/B/A/ B/A/B/A/ A/A/G | A2 A2 c3 B | %17
w: |* * * * * * * * * * * * * * pu-|lo, in- ter- ve-|
 A4 D/E/F/G/ A/F/G/A/ | B/c/d/c/ B/A/G/F/ G4 | F6 D2 | E/4D/4E/4C/4D/E/ F G/F/ G/E/F/G/ A2 | %21
w: ni pro _ _ _ _ _ _ _|_ _ _ _ _ _ _ _ cle-|ro, in-|ter- * * * * * ce de _ _ _ _ _ pro|
 F/G/A/B/ c/B/c/d/ B4- | B2 c2 ^F4 | A/B/c/B/ c/A/B/c/ d3 c | B6 D/E/F/G/ | %25
w: de- * * * * * * * vo-|* * to|foe- * * * * * * * mi- ne-|o se- * * *|
 F/G/A/B/ A/B/c/d/ c/d/_e/c/ d/c/B/A/ | G/A/B/G/ c/B/A/G/ F/E/D/E/ F/G/A/B/ | c/A/B/c/ dD EFGA | %28
w: |||
 B/Ac/ B2 A4 | G8 |[M:3/4] f3 f _e/d/e/c/ |[M:4/4] d4 d4- | d2 G2 A2 B2 | %33
w: |xu,|sen- ti- ant _ _ _|o- mnes|_ tu- um iu-|
 c/B/A/G/ F/G/A/B/ F/G/A/B/ c/d/e/f/ | d/_e/c/d/ B>c B/A/G A/F/G/A/ | B/c/d/c/ _e/d/c/B/ c4 | %36
w: va- * * * * * * * * * * * * * * *|||
 B6 d2 | f3 _e d3 c | c4 cd3/2 _e/f/e/ | d/c/B/A/ G/A/B/G/ c/d/_e/c/ f/e/d/c/ | =B2 c4 B2 | %41
w: men qui-|cum- que ce- le-|brant tu- am san- * *||* * ctam|
 c4 B/A/B/c/ B/A/G/F/ | E/D/E/F/ E/F/D/E/ F/G/F/G/ E/F/G/A/ | DE/^F/ G/A/B/c/ d/G/A/B/ c/F/G/A/ | %44
w: fes- * * * * * * * *|||
 B/A/G/A/ B/c/A/B/ G2 A/G/^F/E/ | D2 E2 ^F2 G2 | ABcG ABcB | A6 B2 | !fermata!G8 |] %49
w: |* * ti- vi-|ta- * * * * * * *||tem|
V:2
 D,4 ^C,4 | D,4 G,,4 |"^b" C,4 B,,4 | C,4 D,4 | _E,8 | G,4 D,4 | _E,4 =B,,4 | C,8 | G,,4 D,4 | %9
 D,4 _E,4- | E,4 F,4 | G,8 | C,8 | D,4 _E,4 | B,,8 | B,,8 | F,4 E,4 | F,8 | D,4 C,4 | F,,4 B,,4 | %20
 C,2 D,2 E,2 F,2 | F,4 G,4- | G,4 D,4 | A,,4 G,,4 | B,,8- | B,,4 C,4 | _E,4 D,4 | A,,2 B,,2 C,4- | %28
 C,4 D,4 | G,,8 |[M:3/4] D,3 D, C,2 |[M:4/4] B,,8 | _E,4 D,4 | C,4 D,4 | _E,8 | D,4 F,4 | %36
 B,,4 B,4 | A,4 B,4 | F,6 C,2 | C,8 | G,8 | C,4 G,,4 | G,8- | G,8- | G,8 | G,4 D,4 | C,8 | D,8 | %48
 !fermata!G,,8 |] %49

